static/images/mobile/copyright/wikipedia-wordmark-tum.svg

<?xml version="1.0" encoding="UTF-8"?>
<svg width="120px" height="18px" viewBox="0 0 120 18" version="1.1" xmlns="http://www.w3.org/2000/svg" xmlns:xlink="http://www.w3.org/1999/xlink">
    <title>tum-wordmark</title>
    <g id="Page-1" stroke="none" stroke-width="1" fill="none" fill-rule="evenodd">
        <path d="M13.0819672,0 L13.0819672,0.491803279 C13.0819672,0.590163934 12.9836066,0.68852459 12.7868852,0.68852459 L12.3934426,0.786885246 C11.5081967,0.885245902 11.6065574,1.18032787 12.1967213,2.36065574 L14.162,6.361 L16.2295082,2.26229508 C16.5018916,1.62673392 16.4390339,1.41022408 16.3503884,1.22594895 L16.3278689,1.18032787 C16.3278689,1.08196721 16.0327869,0.885245902 15.442623,0.885245902 L15.2459016,0.885245902 C15.147541,0.885245902 15.147541,0.786885246 15.0491803,0.786885246 C14.9508197,0.786885246 14.9508197,0.786885246 14.9508197,0.68852459 L14.9508197,0.196721311 L15.0491803,0.0983606557 L19.5737705,0.0983606557 L19.573197,0.632031735 C19.5697558,0.714620274 19.5456674,0.786885246 19.3770492,0.786885246 C18.5901639,0.786885246 18.4918033,0.885245902 18.1967213,1.27868852 C18.0983607,1.47540984 17.8032787,1.96721311 17.5081967,2.45901639 L14.9508197,7.27868852 C14.9508197,7.27868852 14.8911638,7.40342348 14.7850861,7.62470983 L17.8032787,13.7704918 L18,13.8688525 L22.9180328,2.06557377 C23.1147541,1.57377049 23.0163934,1.27868852 22.8196721,1.08196721 C22.6229508,0.885245902 22.4262295,0.786885246 21.8360656,0.786885246 L21.3442623,0.786885246 C21.2459016,0.786885246 21.2459016,0.786885246 21.147541,0.68852459 C21.0688525,0.68852459 21.0531148,0.62557377 21.0499672,0.600393443 L21.0491803,0.0983606557 L21.147541,0 L26.7540984,0 L26.852459,0.0983606557 L26.852459,0.590163934 C26.852459,0.68852459 26.7540984,0.786885246 26.6557377,0.786885246 C25.9672131,0.786885246 25.3770492,0.983606557 24.9836066,1.27868852 C24.5901639,1.57377049 24.3934426,1.96721311 24.1967213,2.45901639 C24.1967213,2.45901639 22.7548319,5.78163116 21.2158728,9.29484631 L20.9513512,9.89839447 C19.8473073,12.4160881 18.7329455,14.9397144 18.0983607,16.3278689 C17.5081967,17.5081967 16.9180328,17.4098361 16.4262295,16.3278689 C16.0066912,15.4506524 15.2913745,13.8931456 14.5727378,12.3148136 L14.3460307,11.8164699 C14.0822062,11.236056 13.8221096,10.6622377 13.5803661,10.1279931 L13.4685902,10.3592818 C12.4525164,12.4609555 11.1749749,15.0812981 10.5245902,16.3278689 C9.73770492,17.5081967 9.24590164,17.3114754 8.75409836,16.3278689 C8.06163934,14.6832787 7.04545574,12.4864525 5.99042518,10.2317367 L5.41281364,8.99912184 C4.25673443,6.53429508 3.11606557,4.10754098 2.36065574,2.36065574 C2.06557377,1.67213115 1.86885246,1.27868852 1.67213115,1.08196721 C1.47540984,0.885245902 1.08196721,0.786885246 0.393442623,0.786885246 C0.0983606557,0.786885246 0,0.68852459 0,0.590163934 L0,0.0983606557 L6.09836066,0.0983606557 L6.19672131,0.196721311 L6.19672131,0.68852459 C6.19672131,0.786885246 6.09836066,0.885245902 5.90163934,0.885245902 L5.31147541,0.885245902 C4.81967213,0.885245902 4.52459016,1.08196721 4.52459016,1.37704918 C4.52459016,1.57377049 4.62295082,1.7704918 4.72131148,2.06557377 C5.17687662,3.24245039 6.08667484,5.28383513 7.03220504,7.34707035 L7.41994497,8.19020334 C8.7119812,10.990465 9.96434238,13.617686 10.1158405,13.9351502 L10.1311475,13.9672131 L10.3278689,13.9672131 L12.9576031,8.74962965 C12.5583428,7.86465612 12.295082,7.27868852 12.295082,7.27868852 L10.6229508,3.63934426 C10.6229508,3.63934426 10.2295082,2.95081967 10.1311475,2.6557377 C9.3442623,0.983606557 9.3442623,0.983606557 8.45901639,0.786885246 C8.26229508,0.786885246 8.06557377,0.68852459 8.06557377,0.590163934 L8.06557377,0.0983606557 L8.16393443,0 L13.0819672,0 Z M30.4918033,5.01639344 L30.4918033,5.50819672 C30.4918033,5.60655738 30.3934426,5.70491803 30.295082,5.70491803 L30,5.70491803 C29.2131148,5.70491803 29.0163934,6 29.0163934,6.49180328 L29.0163934,15.7377049 C29.0163934,16.2295082 29.3114754,16.5245902 30,16.5245902 L30.295082,16.5245902 C30.3934426,16.5245902 30.4918033,16.6229508 30.4918033,16.7213115 L30.4918033,17.1147541 L25.3770492,17.1147541 L25.3770492,16.7213115 C25.3770492,16.6229508 25.4754098,16.5245902 25.5737705,16.5245902 L25.8688525,16.5245902 C26.6557377,16.5245902 26.852459,16.3278689 26.852459,15.7377049 L26.852459,6.49180328 C26.852459,5.90163934 26.557377,5.70491803 25.8688525,5.70491803 L25.5737705,5.70491803 C25.4754098,5.70491803 25.3770492,5.60655738 25.3770492,5.50819672 L25.3770492,5.01639344 L30.4918033,5.01639344 Z M36.4918033,16.5245902 L36.7868852,16.5245902 C36.8852459,16.5245902 36.9836066,16.6229508 36.9836066,16.7213115 L36.9836066,17.1147541 L36.9836066,17.1147541 C36.9836066,17.1147541 35.1147541,17.1147541 34.4262295,17.1147541 C33.7377049,17.1147541 31.8688525,17.1147541 31.8688525,17.1147541 L31.8688525,17.1147541 L31.8688525,16.7213115 C31.8688525,16.6229508 31.9672131,16.5245902 32.0655738,16.5245902 L32.3606557,16.5245902 C33.147541,16.5245902 33.3442623,16.3278689 33.3442623,15.7377049 L33.3442623,6.49180328 C33.3442623,5.90163934 33.0491803,5.70491803 32.3606557,5.70491803 L32.0655738,5.70491803 C31.9672131,5.70491803 31.8688525,5.60655738 31.8688525,5.50819672 L31.8688525,5.01639344 L31.8688525,5.01639344 C31.8688525,5.01639344 33.6393443,5.01639344 34.4262295,5.01639344 C35.1147541,5.01639344 36.9836066,5.01639344 36.9836066,5.01639344 L36.9836066,5.01639344 L36.9836066,5.50819672 C36.9836066,5.60655738 36.8852459,5.70491803 36.8852459,5.70491803 L36.3934426,5.70491803 C35.6065574,5.70491803 35.4098361,6 35.4098361,6.49180328 L35.4098361,10.2295082 L39.3442623,6.59016393 C39.6393443,6.39344262 40.0327869,5.70491803 39.3442623,5.70491803 C38.9508197,5.70491803 38.557377,5.70491803 38.557377,5.50819672 L38.557377,5.1147541 L38.6557377,5.01639344 C38.6557377,5.01639344 40.4262295,5.01639344 41.1147541,5.01639344 C41.8032787,5.01639344 43.2786885,5.01639344 43.2786885,5.01639344 L43.3770492,5.1147541 L43.3770492,5.50819672 C43.3770492,5.70491803 43.1803279,5.70491803 42.7868852,5.70491803 C42.1967213,5.80327869 41.5081967,6.19672131 40.6229508,6.98360656 L37.7704918,9.63934426 C36.9836066,10.4262295 36.8852459,10.6229508 37.2786885,11.0163934 L41.704918,15.7377049 C42.1967213,16.2295082 42.4918033,16.5245902 42.8852459,16.5245902 L43.2786885,16.5245902 C43.5737705,16.5245902 43.5737705,16.6229508 43.5737705,16.7213115 L43.5737705,17.1147541 L43.4754098,17.1147541 C43.4754098,17.1147541 41.8032787,17.1147541 41.0163934,17.1147541 C40.3278689,17.1147541 39.5409836,17.1147541 39.5409836,17.1147541 L39.442623,17.0163934 L39.442623,16.5245902 C39.442623,16.1311475 39.442623,15.9344262 39.147541,15.7377049 L35.4098361,11.6065574 L35.4098361,15.6393443 C35.4098361,16.2295082 35.704918,16.5245902 36.4918033,16.5245902 Z M49.4754098,16.5245902 L49.7704918,16.5245902 C49.8688525,16.5245902 49.9672131,16.6229508 49.9672131,16.7213115 L49.9672131,17.1147541 L49.9672131,17.1147541 C49.9672131,17.1147541 48.0983607,17.1147541 47.4098361,17.1147541 C46.7213115,17.1147541 44.852459,17.1147541 44.852459,17.1147541 L44.852459,17.1147541 L44.852459,16.7213115 C44.852459,16.6229508 44.9508197,16.5245902 45.0491803,16.5245902 L45.3442623,16.5245902 C46.1311475,16.5245902 46.3278689,16.3278689 46.3278689,15.7377049 L46.3278689,6.49180328 C46.3278689,5.90163934 46.0327869,5.70491803 45.3442623,5.70491803 L45.0491803,5.70491803 C44.9508197,5.70491803 44.852459,5.60655738 44.852459,5.50819672 L44.852459,5.01639344 L44.852459,5.01639344 C44.852459,5.01639344 46.6229508,5.01639344 47.4098361,5.01639344 C48.0983607,5.01639344 49.9672131,5.01639344 49.9672131,5.01639344 L49.9672131,5.01639344 L49.9672131,5.50819672 C49.9672131,5.60655738 49.8688525,5.70491803 49.7704918,5.70491803 L49.4754098,5.70491803 C48.6885246,5.70491803 48.4918033,6 48.4918033,6.49180328 L48.4918033,15.7377049 C48.4918033,16.2295082 48.6885246,16.5245902 49.4754098,16.5245902 Z M52.6229508,6.68852459 C52.6229508,6 52.4262295,5.70491803 52.0327869,5.70491803 L51.442623,5.70491803 C51.2459016,5.70491803 51.2459016,5.60655738 51.2459016,5.50819672 L51.2459016,5.01639344 L51.2459016,5.01639344 C52.3278689,5.01639344 54.6885246,4.91803279 56.1639344,4.91803279 C59.9016393,4.91803279 60.6885246,6.8852459 60.6885246,8.06557377 C60.6885246,9.83606557 59.6065574,11.9016393 55.8688525,11.9016393 C55.3770492,11.9016393 55.0819672,11.9016393 54.8852459,11.8032787 L54.8852459,15.442623 C54.8852459,16.1311475 55.2786885,16.4262295 55.9672131,16.4262295 L56.3606557,16.4262295 C56.4590164,16.4262295 56.557377,16.5245902 56.557377,16.6229508 L56.557377,17.0163934 L56.557377,17.0163934 C55.8688525,17.0163934 54.4918033,17.0163934 53.8032787,17.0163934 C53.1147541,17.0163934 51.9344262,17.0163934 51.2459016,17.0163934 L51.2459016,17.0163934 L51.2459016,16.6229508 C51.2459016,16.5245902 51.3442623,16.4262295 51.442623,16.4262295 L51.7377049,16.4262295 C52.5245902,16.3278689 52.7213115,16.1311475 52.7213115,15.442623 L52.7213115,6.68852459 L52.6229508,6.68852459 Z M54.8852459,11.1147541 C55.1803279,11.1147541 55.5737705,11.2131148 55.8688525,11.2131148 C57.442623,11.2131148 58.4262295,10.4262295 58.4262295,8.45901639 C58.4262295,6.19672131 57.147541,5.70491803 56.0655738,5.70491803 C55.0819672,5.70491803 54.9836066,6.09836066 54.9836066,6.68852459 L54.9836066,11.1147541 L54.8852459,11.1147541 Z M62.0655738,17.1147541 L62.0655738,16.7213115 C62.0655738,16.6229508 62.1639344,16.5245902 62.2622951,16.5245902 L62.557377,16.5245902 C63.3442623,16.5245902 63.5409836,16.3278689 63.5409836,15.7377049 L63.5409836,6.49180328 C63.5409836,5.90163934 63.2459016,5.70491803 62.557377,5.70491803 L62.2622951,5.70491803 C62.1639344,5.70491803 62.0655738,5.60655738 62.0655738,5.50819672 L62.0655738,5.1147541 L62.1639344,5.1147541 L70.8196721,5.1147541 C70.9180328,6.19672131 71.0163934,7.18032787 71.2131148,8.16393443 L70.4262295,8.36065574 C70.1311475,7.37704918 69.7377049,6 68.4590164,6 L66,6 C65.8032787,6 65.704918,6.19672131 65.704918,6.59016393 L65.704918,10.4262295 L67.8688525,10.4262295 C68.3606557,10.4262295 68.4590164,9.83606557 68.557377,9.04918033 C68.557377,8.95081967 68.6557377,8.85245902 68.852459,8.85245902 L69.2459016,8.85245902 L69.3442623,9.04918033 C69.3442623,9.3442623 69.2459016,10.1311475 69.2459016,10.8196721 C69.2459016,11.5081967 69.3442623,12.1967213 69.3442623,12.5901639 L69.2459016,12.7868852 L68.852459,12.7868852 C68.6557377,12.7868852 68.557377,12.6885246 68.557377,12.5901639 C68.4590164,11.8032787 68.3606557,11.2131148 67.8688525,11.2131148 L65.8032787,11.2131148 L65.8032787,15.8360656 C65.8032787,16.2295082 65.9016393,16.4262295 66.0983607,16.4262295 L68.852459,16.4262295 C69.8360656,16.4262295 70.5245902,15.3442623 70.9180328,13.9672131 L71.704918,14.1639344 C71.5081967,15.147541 71.3114754,16.3278689 71.2131148,17.3114754 L62.0655738,17.1147541 L62.0655738,17.1147541 Z M72.4918033,17.1147541 L72.4918033,16.7213115 C72.4918033,16.6229508 72.5901639,16.5245902 72.6885246,16.5245902 L72.9836066,16.5245902 C73.7704918,16.5245902 73.9672131,16.3278689 73.9672131,15.7377049 L73.9672131,6.49180328 C73.9672131,5.90163934 73.6721311,5.70491803 72.9836066,5.70491803 L72.6885246,5.70491803 C72.5901639,5.70491803 72.4918033,5.60655738 72.4918033,5.50819672 L72.4918033,5.1147541 L72.4918033,5.1147541 L78,5.1147541 C81.8360656,5.1147541 84.7868852,7.96721311 84.7868852,11.4098361 C84.7868852,16.0327869 81.147541,17.2131148 78.3934426,17.2131148 L72.4918033,17.1147541 L72.4918033,17.1147541 Z M77.8032787,16.4262295 C80.1639344,16.4262295 82.3278689,15.5409836 82.3278689,11.9016393 C82.3278689,9.04918033 81.0491803,5.90163934 77.3114754,5.90163934 C76.6229508,5.90163934 76.1311475,6 76.1311475,6.59016393 L76.1311475,15.8360656 C76.2295082,16.2295082 76.4262295,16.4262295 77.8032787,16.4262295 Z M90.6885246,16.5245902 L90.9836066,16.5245902 C91.0819672,16.5245902 91.1803279,16.6229508 91.1803279,16.7213115 L91.1803279,17.1147541 L91.1803279,17.1147541 C91.1803279,17.1147541 89.3114754,17.1147541 88.6229508,17.1147541 C87.9344262,17.1147541 86.0655738,17.1147541 86.0655738,17.1147541 L86.0655738,17.1147541 L86.0655738,16.7213115 C86.0655738,16.6229508 86.1639344,16.5245902 86.2622951,16.5245902 L86.557377,16.5245902 C87.3442623,16.5245902 87.5409836,16.3278689 87.5409836,15.7377049 L87.5409836,6.49180328 C87.5409836,5.90163934 87.2459016,5.70491803 86.557377,5.70491803 L86.2622951,5.70491803 C86.1639344,5.70491803 86.0655738,5.60655738 86.0655738,5.50819672 L86.0655738,5.01639344 L86.0655738,5.01639344 C86.0655738,5.01639344 87.8360656,5.01639344 88.6229508,5.01639344 C89.3114754,5.01639344 91.1803279,5.01639344 91.1803279,5.01639344 L91.1803279,5.01639344 L91.1803279,5.50819672 C91.1803279,5.60655738 91.0819672,5.70491803 90.9836066,5.70491803 L90.6885246,5.70491803 C89.9016393,5.70491803 89.704918,6 89.704918,6.49180328 L89.704918,15.7377049 C89.704918,16.2295082 89.9016393,16.5245902 90.6885246,16.5245902 Z M96.4918033,5.1147541 L96.4918033,5.60655738 C96.4918033,5.70491803 96.4918033,5.80327869 96.3934426,5.80327869 C95.4098361,5.80327869 95.2131148,5.90163934 95.6065574,6.49180328 L98.1639344,11.0163934 L100.52459,6.49180328 C100.721311,6.09836066 100.42623,5.80327869 99.7377049,5.80327869 C99.6393443,5.80327869 99.6393443,5.70491803 99.6393443,5.70491803 L99.6393443,5.21311475 L103.278689,5.21311475 L103.278689,5.70491803 C103.278689,5.80327869 103.180328,5.90163934 103.081967,5.90163934 L102.688525,5.90163934 C102.098361,5.90163934 101.901639,6 101.508197,6.59016393 L98.7540984,11.8032787 L98.7540984,15.9344262 C98.7540984,16.5245902 99.0491803,16.6229508 99.7377049,16.6229508 L100.229508,16.6229508 C100.327869,16.6229508 100.42623,16.7213115 100.42623,16.8196721 L100.42623,17.2131148 L94.9180328,17.2131148 L94.9180328,16.8196721 C94.9180328,16.7213115 94.9180328,16.6229508 95.0163934,16.6229508 L95.5081967,16.6229508 C96.295082,16.6229508 96.4918033,16.4262295 96.4918033,15.9344262 L96.4918033,11.9016393 L96.6885246,11.9016393 L93.7377049,6.78688525 C93.147541,5.70491803 92.852459,5.70491803 92.3606557,5.70491803 L92.1639344,5.70491803 C92.0655738,5.70491803 91.9672131,5.70491803 91.9672131,5.60655738 L91.9672131,5.1147541 L96.4918033,5.1147541 Z M111.639344,0.196721311 C112.032787,0.196721311 112.131148,0.491803279 112.327869,0.983606557 L117.540984,14.852459 C117.934426,15.8360656 118.42623,16.2295082 119.409836,16.3278689 L119.704918,16.3278689 C119.803279,16.3278689 120,16.4262295 120,16.5245902 L120,17.0163934 L119.901639,17.1147541 C119.901639,17.1147541 118.10177,17.0247606 117.084452,17.0169351 L116.95082,17.0163934 C116.065574,17.0163934 113.508197,17.1147541 113.508197,17.1147541 L113.508197,16.5245902 C113.508197,16.4262295 113.606557,16.3278689 113.704918,16.3278689 L114.393443,16.2295082 C115.377049,16.1311475 115.770492,15.8360656 115.47541,15.147541 L113.901639,10.8196721 L108.590164,10.8196721 C108,10.8196721 107.803279,10.9180328 107.704918,11.2131148 L106.229508,14.9508197 C106.032787,15.6393443 106.42623,16.2295082 107.311475,16.3278689 L108.098361,16.4262295 C108.196721,16.4262295 108.295082,16.5245902 108.295082,16.6229508 L108.295082,17.1147541 L108.196721,17.2131148 C108.196721,17.2131148 105.442623,17.1147541 104.754098,17.1147541 C104.065574,17.1147541 102.491803,17.2131148 102.491803,17.2131148 L102.393443,17.1147541 L102.393443,16.5245902 C102.393443,16.4262295 102.491803,16.3278689 102.590164,16.3278689 C103.672131,16.2295082 104.360656,16.0327869 105.04918,14.3606557 L110.754098,1.08196721 C111.04918,0.393442623 111.245902,0.196721311 111.639344,0.196721311 Z M111.147541,3.04918033 L111.04918,3.04918033 L108.491803,9.54098361 C108.393443,9.83606557 108.590164,9.83606557 109.081967,9.83606557 L113.606557,9.83606557 L111.147541,3.04918033 Z" id="tum-wordmark" fill="#000000" fill-rule="nonzero"></path>
    </g>
</svg>

<svg xmlns="http://www.w3.org/2000/svg" width="120" height="18"><path fill="#000" fill-rule="nonzero" d="M13.082 0v.492c0 .098-.098.197-.295.197l-.394.098c-.885.098-.786.393-.196 1.574l1.965 4 2.068-4.099c.272-.635.209-.852.12-1.036l-.022-.046c0-.098-.295-.295-.885-.295h-.197c-.098 0-.098-.098-.197-.098-.098 0-.098 0-.098-.098V.197l.098-.099h4.525v.534c-.004.083-.028.155-.197.155-.787 0-.885.098-1.18.492-.099.196-.394.688-.689 1.18l-2.557 4.82-.166.346 3.018 6.145.197.099 4.918-11.803c.197-.492.098-.787-.098-.984-.197-.197-.394-.295-.984-.295h-.492c-.098 0-.098 0-.196-.098-.08 0-.095-.063-.098-.089V.098L21.147 0h5.606l.098.098V.59a.212.212 0 0 1-.196.197c-.689 0-1.279.197-1.672.492-.394.295-.59.688-.787 1.18 0 0-1.442 3.323-2.981 6.836l-.265.603a558.493 558.493 0 0 1-2.853 6.43c-.59 1.18-1.18 1.082-1.672 0-.42-.877-1.135-2.435-1.853-4.013l-.227-.499-.766-1.688-.111.231c-1.016 2.102-2.294 4.722-2.944 5.969-.787 1.18-1.28.983-1.77 0-.693-1.645-1.71-3.842-2.765-6.096l-.577-1.233C4.257 6.534 3.116 4.108 2.36 2.361c-.295-.689-.492-1.082-.689-1.279C1.475.885 1.082.787.393.787.098.787 0 .689 0 .59V.098h6.098l.099.099v.492c0 .098-.099.196-.295.196h-.59c-.492 0-.787.197-.787.492 0 .197.098.393.196.689.456 1.176 1.366 3.218 2.311 5.281l.388.843c1.292 2.8 2.544 5.428 2.696 5.745l.015.032h.197l2.63-5.217c-.4-.885-.663-1.471-.663-1.471l-1.672-3.64s-.393-.688-.492-.983C9.344.984 9.344.984 8.46.786c-.197 0-.393-.097-.393-.196V.098L8.164 0h4.918Zm17.41 5.016v.492a.212.212 0 0 1-.197.197H30c-.787 0-.984.295-.984.787v9.246c0 .492.295.787.984.787h.295c.098 0 .197.098.197.196v.394h-5.115v-.394c0-.098.098-.196.197-.196h.295c.787 0 .983-.197.983-.787V6.492c0-.59-.295-.787-.983-.787h-.295a.212.212 0 0 1-.197-.197v-.492h5.115Zm6 11.509h.295c.098 0 .197.098.197.196v.394h-5.115v-.394c0-.098.098-.196.197-.196h.295c.787 0 .983-.197.983-.787V6.492c0-.59-.295-.787-.983-.787h-.295a.212.212 0 0 1-.197-.197v-.492h5.115v.492c0 .099-.099.197-.099.197h-.492c-.786 0-.983.295-.983.787v3.738l3.934-3.64c.295-.197.689-.885 0-.885-.393 0-.787 0-.787-.197v-.393l.099-.099h4.623l.098.099v.393c0 .197-.197.197-.59.197-.59.098-1.279.492-2.164 1.279L37.77 9.639c-.786.787-.885.984-.491 1.377l4.426 4.722c.492.492.787.787 1.18.787h.394c.295 0 .295.098.295.196v.394H39.54l-.098-.099v-.491c0-.394 0-.59-.295-.787l-3.738-4.131v4.032c0 .59.295.886 1.082.886Zm12.983 0h.295c.099 0 .197.098.197.196v.394h-5.115v-.394c0-.098.099-.196.197-.196h.295c.787 0 .984-.197.984-.787V6.492c0-.59-.295-.787-.984-.787h-.295a.212.212 0 0 1-.197-.197v-.492h5.115v.492a.212.212 0 0 1-.197.197h-.295c-.786 0-.983.295-.983.787v9.246c0 .492.197.787.983.787Zm3.148-9.836c0-.689-.197-.984-.59-.984h-.59c-.197 0-.197-.098-.197-.197v-.492c1.082 0 3.443-.098 4.918-.098 3.738 0 4.525 1.967 4.525 3.148 0 1.77-1.082 3.836-4.82 3.836-.492 0-.787 0-.984-.099v3.64c0 .688.394.983 1.082.983h.394c.098 0 .196.099.196.197v.393h-5.311v-.393c0-.098.098-.197.197-.197h.295c.787-.098.983-.295.983-.983V6.689h-.098Zm2.262 4.426c.295 0 .689.098.984.098 1.574 0 2.557-.787 2.557-2.754 0-2.262-1.278-2.754-2.36-2.754-.984 0-1.082.393-1.082.984v4.426h-.099Zm7.18 6v-.394c0-.098.099-.196.197-.196h.295c.787 0 .984-.197.984-.787V6.492c0-.59-.295-.787-.984-.787h-.295a.212.212 0 0 1-.196-.197v-.393H70.82c.098 1.082.196 2.065.393 3.049l-.787.197C70.131 7.377 69.738 6 68.46 6H66c-.197 0-.295.197-.295.59v3.836h2.164c.492 0 .59-.59.688-1.377 0-.098.099-.197.295-.197h.394l.098.197c0 .295-.098 1.082-.098 1.77 0 .69.098 1.378.098 1.771l-.098.197h-.394c-.196 0-.295-.098-.295-.197-.098-.787-.196-1.377-.688-1.377h-2.066v4.623c0 .394.099.59.295.59h2.754c.984 0 1.673-1.082 2.066-2.459l.787.197a34.829 34.829 0 0 0-.492 3.147l-9.147-.196Zm10.427 0v-.394c0-.098.098-.196.197-.196h.295c.786 0 .983-.197.983-.787V6.492c0-.59-.295-.787-.983-.787h-.295a.212.212 0 0 1-.197-.197v-.393H78c3.836 0 6.787 2.852 6.787 6.295 0 4.623-3.64 5.803-6.394 5.803l-5.901-.098Zm5.311-.689c2.36 0 4.525-.885 4.525-4.524 0-2.853-1.279-6-5.017-6-.688 0-1.18.098-1.18.688v9.246c.099.394.295.59 1.672.59Zm12.886.099h.295c.098 0 .196.098.196.196v.394h-5.114v-.394c0-.098.098-.196.196-.196h.295c.787 0 .984-.197.984-.787V6.492c0-.59-.295-.787-.984-.787h-.295a.212.212 0 0 1-.196-.197v-.492h5.114v.492a.212.212 0 0 1-.196.197h-.295c-.787 0-.984.295-.984.787v9.246c0 .492.197.787.984.787Zm5.803-11.41v.492c0 .098 0 .196-.099.196-.983 0-1.18.099-.786.689l2.557 4.524 2.36-4.524c.197-.394-.098-.689-.786-.689-.099 0-.099-.098-.099-.098v-.492h3.64v.492a.212.212 0 0 1-.197.197h-.393c-.59 0-.787.098-1.18.688l-2.755 5.213v4.131c0 .59.295.689.984.689h.492c.098 0 .196.098.196.197v.393h-5.508v-.393c0-.099 0-.197.098-.197h.492c.787 0 .984-.197.984-.689v-4.032h.197l-2.951-5.115c-.59-1.082-.886-1.082-1.377-1.082h-.197c-.098 0-.197 0-.197-.098v-.492h4.525ZM111.639.197c.394 0 .492.295.689.787l5.213 13.868c.393.984.885 1.378 1.869 1.476h.295c.098 0 .295.098.295.197v.491l-.098.099s-1.8-.09-2.818-.098h-.133c-.885 0-3.443.098-3.443.098v-.59c0-.099.099-.197.197-.197l.688-.098c.984-.099 1.377-.394 1.082-1.082l-1.573-4.328h-5.312c-.59 0-.787.098-.885.393l-1.475 3.738c-.197.688.196 1.279 1.081 1.377l.787.098c.099 0 .197.099.197.197v.492l-.098.098s-2.754-.098-3.443-.098c-.688 0-2.262.098-2.262.098l-.099-.098v-.59c0-.099.099-.197.197-.197 1.082-.098 1.77-.295 2.46-1.967l5.704-13.279c.295-.689.492-.885.885-.885Zm-.491 2.852h-.099l-2.557 6.492c-.099.295.098.295.59.295h4.525l-2.46-6.787Z"/></svg>
